!!!COM: Charles Gounod
!!!CNT: Francais
!!!TXO: Francais
!!!OTL: "Le de/part du mousse (Barcarolle)"
!!!LYR: Barbier
!!!OPR: 
!!!OPS: Op. 
!!!ONM: No.
!!!ENC: Emily Thomas
!!!YOR: CD Sheet Music French Art Songs, The Ultimate Collection
!!!YOR: CD Sheet Music, LLC 2003
!!!ODT: 1877/
!!NB: Vocal melody and text encoded.
**kern	**silbe
=1	=1
*clefG2	*
*k[b-e-]	*
*M6/8	*
*MM[Allegretto.]	*
2.r	.
=2	=2
2.r	.
=3	=3
2.r	.
=4	=4
2.r	.
=5	=5
8r	.
{8g	Tu
8a	vas,
8b-	cru-
8cc	-el
8dd	na-
=6	=6
4ee-	-vi
8b-	|
4g}	-re,}
8r	.
=7	=7
{4a	{M'em-
8f#	por-
[4.d	-ter
=8	=8
4d]	|
8g	la\-
[4.b-	-bas!..
=9	=9
8b-]	|
8a	Que
8g	de
8g	lar-
8f	-mes,
8g	he/-
=10	=10
4dd	-las!
8g}	|}
{[4.a	{Si
=11	=11
8a]	|
8g#	tu
8a	ne
8ccn	re-
8b-	|
8a	-viens
=11	=11
[4.g	pas!
8g]}	|}
8r	.
8r	.
=12	=12
8r	.
{8g	{Je
8a	laisse,
8b-	o^
8cc	dur
8dd	mar-
=13	=13
4ee-	-ty-
8b-	|
4g}	-re!}
8r	.
=14	=14
{4b-	{Ceux
8g	que
4.e-	j'aime
=15	=15
4f	en
8b-	ces
[4.dd	lieux,
=16	=16
8dd]	|
8cc	Pour-
8b-	-quoi
8a	vers
8g	d'au-
8a	-tres
=17	=17
[4.dd	cieux
4dd]}	|}
8r	.
=18	=18
{4.een	{Fuir
4.ff#	sans
=19	=19
4gg}	eux?}
{8ee-	{Dou-
4dd	-leur
8cc	a-
=20	=20
4b-	-me\re!
8g	Oh!
4en	re-
8f#	-ve-
=21	=21
8g}	-nir!}
8r	.
{8b-	{Re-
4a	-voir
8dd	la
=22	=22
4cc	terre
8b-	Ou\
4a	j'ai
8dd	ma
=23	=23
8cc	me\-
8cc}	-re!}
{8ee-	{Dou-
4dd	-leur
8cc	a-
=24	=24
4b-	-me\re!
8g	Oh!
4en	re-
8f#	-ve-
=25	=25
8g}	-nir!}
8r	.
{8b-	{Oh!
4a	re-
8fn	-ve-
=26	=26
[4.dd	-nir!
4dd]}	|}
8r	.
=27	=27
8r	.
{8g	{Re-
8a	|
8b-	-voir
8cc	|
8dd	la
=28	=28
4gg	terre
8ee-	Ou\
4cc	j'ai
8a	ma
=29	=29
4.dd	me\re
16aq	Ou
16b-q	|
8cc	|
8b-	|
8a	mou-
=30	=30
[4.g	-rir!
4g]}	|}
8r	.
=31	=31
2.r	.
=32	=32
2.r	.
=33	=33
2.r	.
=34	=34
2.r	.
=35	=35
4r	.
{8g	{Re-
4b-	-voir
8dd	la
=36	=36
4ee-	terre
8cc	Ou\
4a-	j'ai
8ee-	ma
=37	=37
2.dd	me\-
=38	=38
[4.dd	-re!
4dd]}	|}
8r	.
=39	=39
2.r	.
=40	=40
2.r	.
=41	=41
2.r	.
=42	=42
2.r	.
=43	=43
4r	.
{8g	{Re-
4b-	-voir
8dd	ma
=44	=44
4.ee-	me\re
4.cc	Ou
=45	=45
4.dd	bien
4.dd	mou-
=46	=46
[2.gg	-rir!
=47	=47
2.gg_	|
=48	=48
2.gg_	|
=49	=49
4gg]}	|}
8r	.
4r	.
8r	.
=50	=50
2.r	.
=51	=51
8r	.
{8g	{Croit-
8a	-on
8b-	que
8cc	la
8dd	ri-
=52	=52
4ee-	-ches-
8b-	|
4g}	-se}
8r	.
=53	=53
{4a	{Don-
8f#	|
4.d	-ne
=54	=54
4d	le
8g	bon-
[4.b-	-heur?
=55	=55
8b-]}	|}
{8a	{Pour
8g	un
8g	es-
8f#	-poir
8g	men-
=56	=56
4dd}	-teur,}
{8g	{Ils
[4.a	ont
=57	=57
8a]	|
8g#	|
8a	bri-
8ccn	-se/
8b-	|
8a	mon
=58	=58
[4.g	coeur!
8g]}	|}
8r	.
8r	.
=59	=59
8r	.
{8g	{Ric-
8a	-he
8b-	de
8cc	leur
8dd	ten-
=60	=60
4ee-	-dres-
8b-	|
4g}	-se,}
8r	.
=61	=61
{4b-	{Que
8g	les
4.e-	ans
=62	=62
4f	e/-
8b-	-taient
[4.dd	courts!
=63	=63
8dd]}	|}
{8cc	{Ont-
8b-	-ils
8a	fui
8g	pour
8a	tou-
=64	=64
[4.dd	-jours,
4dd]}	|}
8r	.
=65	=65
{4.een	{Ces
4.ff#	heaux
=66	=66
4gg}	jours?}
{8ee-	{Dou-
4dd	-leur
8cc	a-
=67	=67
4b-	-me\re!
8g	Oh!
4en	re-
8f#	-ve-
=68	=68
8g}	-nir!}
8r	.
{8b-	{Re-
4a	-voir
8dd	la
=69	=69
4cc	terre
8b-	Ou\
4a	j'ai
8dd	ma
=70	=70
8cc	me\-
8cc}	-re!}
{8ee-	{Dou-
4dd	-leur
8cc	a-
=71	=71
4b-	-me\re!
8g	Oh!
4en	re-
8f#	-ve-
=72	=72
8g}	-nir!}
8r	.
{8b-	{Oh!
4a	re-
8fn	-ve-
=73	=73
[4.dd	-nir!
4dd]}	|}
8r	.
=74	=74
8r	.
{8g	{Re-
8a	|
8b-	-voir
8cc	|
8dd	la
=75	=75
4gg	terre
8ee-	Ou\
4cc	j'ai
8a	ma
=76	=76
4.dd	me\re
16aq	Oh
16b-q	|
8cc	|
8b-	|
8a	mou-
=77	=77
[4.g	-rir!
4g]}	|}
8r	.
=78	=78
2.r	.
=79	=79
2.r	.
=80	=80
2.r	.
=81	=81
2.r	.
=82	=82
4r	.
{8g	{Re-
4b-	-voir
8dd	la
=83	=83
4ee-	terre
8cc	Ou\
4a-	j'ai
8ee-	ma
=84	=84
2.dd	me\-
=85	=85
[4.dd	-re!
4dd]}	|}
8r	.
=86	=86
2.r	.
=87	=87
2.r	.
=88	=88
2.r	.
=89	=89
2.r	.
=90	=90
4r	.
{8g	{Re-
4b-	-voir
8dd	ma
=91	=91
4.ee-	me\re
4.cc	Ou
=92	=92
4.dd	bien
4.dd	mou-
=93	=93
[2.gg	-rir!
=94	=94
2.gg_	|
=95	=95
2.gg_	|
=96	=96
4gg]}	|}
8r	.
4r	.
8r	.
==	==
*-	*-
